X:1
T:Title
%%score { ( 1 3 ) | 2 }
L:1/8
Q:1/4=100
M:4/4
K:F
V:1 treble nm="Grand Piano"
V:3 treble 
V:2 bass 
V:1
 A2 G>A FFCC | z4 A4 | A2 G>A GDEF | z4 G4 | A2 G>A FFCC | z4 A4 | c2 A>F DGBG | F2 E2 F4 |] %8
w: Chas.~H.~Gabriel * * * * * *||||||||
V:2
 [F,,F,]2 [C,F,A,]2 [F,,F,]2 [C,F,A,]2 | B,,2 [D,F,B,]2 [F,,F,]2 [C,F,]2 | %2
 [G,,G,]2 [F,G,=B,]2 [G,,G,]2 [F,G,B,]2 | [C,E,G,C]2 [G,,D,]2 [C,C]B,,A,,G,, | %4
 [F,,F,]2 [C,F,A,]2 [F,,F,]2 [C,F,A,]2 | B,,2 [D,F,B,]2 [F,,F,]2 [C,F,]2 | %6
 [A,,A,]2 [F,C]2 [B,,B,]2 [D,G,B,]2 | [C,F,A,]2 [C,G,B,]2 [F,A,]4 |] %8
V:3
 x8 | D>E FB z2 A,2 | x8 | G2 [=B,G]2 z _B,A,G, | x8 | D>E FB z2 A,2 | x8 | x8 |] %8

